icons/zcool-line.svg

<svg xmlns="http://www.w3.org/2000/svg" width="24" height="24" fill="none"><g clip-path="url(#a)"><g><path fill="#121212" d="M8.26 8.26C5.838 8.803 4 11.208 4 13.935C3.99998 15.4051 4.54853 16.8224 5.53832 17.9094C6.52811 18.9964 7.88789 19.675 9.35159 19.8123C10.8153 19.9496 12.2776 19.5358 13.4523 18.6519C14.627 17.7679 15.4296 16.4775 15.703 15.033C15.7619 14.719 15.8951 14.4237 16.0915 14.1718C16.2879 13.9199 16.5419 13.7186 16.832 13.585C17.314 13.363 17.742 13.112 18.116 12.842C17.253 12.239 16.93 10.98 17.646 10.008C18.2428 9.20082 18.7119 8.30672 19.037 7.357C17.8606 7.90247 16.6316 8.32634 15.369 8.622C14.108 8.925 12.977 7.984 12.903 6.808C11.723 7.38 10.233 7.818 8.261 8.26H8.26ZM19.256 11.194C20.422 11.194 21.173 10.77 22 10.607C21.675 12.055 20.5 14.097 17.67 15.402C17.3062 17.3377 16.2326 19.0679 14.6597 20.2534C13.0868 21.4389 11.1279 21.9943 9.16685 21.8108C7.20579 21.6274 5.3839 20.7182 4.05818 19.2615C2.73246 17.8049 1.99846 15.9056 2 13.936C2 10.29 4.467 7.06 7.824 6.308C11.745 5.43 13.528 4.742 14.9 2C15.589 3.333 15.589 4.892 14.9 6.677C17.716 6.007 19.974 4.825 21.674 3.129C21.674 7.931 19.852 10.315 19.255 11.194H19.256ZM13.416 15.126C14 15.271 14 15.958 14 16.146V17.168C14 17.729 13.658 17.941 13.156 17.941H7.742C7.267 17.854 7.008 17.595 7.008 17.163V16.213C7.008 15.738 7.224 15.393 7.44 15.133L10.592 11.764H7.526C7.224 11.764 7.008 11.548 7.008 11.16C6.964 10.425 7.094 9.26 7.655 9C7.742 9 7.742 9.13 7.742 9.173C7.655 9.346 7.742 9.475 7.958 9.475H11.845C12.708 9.475 13.226 9.475 13.529 9.389C13.659 9.346 13.745 9.389 13.702 9.519C13.615 9.821 13.658 10.166 13.658 10.469C13.658 11.462 13.658 11.851 12.881 12.628L10.203 15.565L13.053 15.563C13.369 15.563 13.417 15.417 13.417 15.126H13.416Z"/></g></g><defs><clipPath id="a"><rect width="24" height="24" fill="white"/></clipPath></defs></svg>

<svg width="24" height="24" fill="none" xmlns="http://www.w3.org/2000/svg"><g clip-path="url(#a)"><path d="M8.26 8.26C5.838 8.803 4 11.208 4 13.935a5.903 5.903 0 0 0 11.703 1.098 2 2 0 0 1 1.129-1.448c.482-.222.91-.473 1.284-.743-.863-.603-1.186-1.862-.47-2.834a9.795 9.795 0 0 0 1.391-2.651c-1.176.545-2.405.97-3.668 1.265-1.261.303-2.392-.638-2.466-1.814-1.18.572-2.67 1.01-4.642 1.452H8.26Zm10.996 2.934c1.166 0 1.917-.424 2.744-.587-.325 1.448-1.5 3.49-4.33 4.795A7.903 7.903 0 0 1 2 13.936C2 10.29 4.467 7.06 7.824 6.308 11.745 5.43 13.528 4.742 14.9 2c.689 1.333.689 2.892 0 4.677 2.816-.67 5.074-1.852 6.774-3.548 0 4.802-1.822 7.186-2.419 8.065h.001Zm-5.84 3.932c.584.145.584.832.584 1.02v1.022c0 .561-.342.773-.844.773H7.742c-.475-.087-.734-.346-.734-.778v-.95c0-.475.216-.82.432-1.08l3.152-3.369H7.526c-.302 0-.518-.216-.518-.604-.044-.735.086-1.9.647-2.16.087 0 .087.13.087.173-.087.173 0 .302.216.302h3.887c.863 0 1.381 0 1.684-.086.13-.043.216 0 .173.13-.087.302-.044.647-.044.95 0 .993 0 1.382-.777 2.159l-2.678 2.937 2.85-.002c.316 0 .364-.146.364-.437h-.001Z" /></g><defs><clipPath id="a"><path fill="#fff" d="M0 0h24v24H0z"/></clipPath></defs></svg>
